images/svg/Canal+_HD_France.svg

<?xml version="1.0" encoding="UTF-8" standalone="no"?>
<!-- Created with Inkscape (http://www.inkscape.org/) -->

<svg
   xmlns:dc="http://purl.org/dc/elements/1.1/"
   xmlns:cc="http://creativecommons.org/ns#"
   xmlns:rdf="http://www.w3.org/1999/02/22-rdf-syntax-ns#"
   xmlns:svg="http://www.w3.org/2000/svg"
   xmlns="http://www.w3.org/2000/svg"
   version="1.1"
   width="50"
   height="16"
   viewBox="0 0 40 12.8"
   id="svg2">
  <metadata
     id="metadata37">
    <rdf:RDF>
      <cc:Work
         rdf:about="">
        <dc:format>image/svg+xml</dc:format>
        <dc:type
           rdf:resource="http://purl.org/dc/dcmitype/StillImage" />
        <dc:title></dc:title>
      </cc:Work>
    </rdf:RDF>
  </metadata>
  <defs
     id="defs35" />
  <g
     transform="matrix(0.0540789,0,0,0.0540789,-0.16602222,0.57817)"
     id="#ffffffff">
    <path
       d="m 643.6,16.63 c 4.54,-0.27 9.1,-0.24 13.66,-0.42 2.77,16.89 6.04,33.69 8.71,50.59 -4.36,0.49 -8.72,1 -13.07,1.55 -1.22,-7.1 -2.51,-14.19 -3.8,-21.28 -6.01,0.69 -12.05,1.04 -18.07,1.57 0.94,7.33 2.8,14.5 3.91,21.8 -4.4,0.45 -8.77,1.06 -13.16,1.53 -3.33,-18.21 -7.1,-36.34 -10.53,-54.53 4.59,-0.22 9.19,-0.28 13.8,-0.28 0.9,6.84 2.57,13.55 3.67,20.36 6.11,-0.28 12.22,-0.72 18.33,-1.1 -1.03,-6.61 -2.36,-13.18 -3.45,-19.79 z"
       id="path5"
       style="fill:#ffffff" />
    <path
       d="m 673.34,15.79 c 11.01,0.39 22.81,-2.47 33.08,2.75 7.95,3.71 14.82,11.27 15.26,20.36 0.92,11.8 -9.39,22.12 -20.62,23.78 -6.47,0.86 -12.97,1.42 -19.43,2.32 -2.84,-16.39 -5.54,-32.81 -8.29,-49.21 m 15.29,10.45 c 1.61,8.8 2.93,17.64 4.3,26.47 4.33,-0.33 9.09,-1.21 12.11,-4.64 4.81,-5.39 2.9,-14.43 -2.57,-18.63 -3.91,-3.06 -9.07,-3.53 -13.84,-3.2 z"
       id="path7"
       style="fill:#ffffff" />
    <path
       d="m 48.94,94.99 c 14.33,-11.16 33.72,-13.63 51.15,-10.08 7.57,1.69 15.2,4.15 21.34,9.06 -1.84,8.4 -2.91,16.97 -5.09,25.28 -9.35,-6.4 -20.72,-10.55 -32.17,-9.11 -9.67,1.1 -19.1,6.68 -23.45,15.59 -4.89,10.33 -4.9,23.8 2.63,32.9 6.93,8.57 19.15,11.34 29.63,9.35 5.52,-0.85 10.61,-3.23 15.86,-4.98 -1.19,8.91 -2.69,17.84 -4.62,26.62 -5.73,3.52 -12.74,4.23 -19.32,4.9 -16.32,1.35 -33.74,-4.09 -44.82,-16.51 -6.77,-7.5 -10.58,-17.19 -12.2,-27.07 -0.7,-6.34 -0.7,-12.72 -0.02,-19.06 2.6,-14.14 9.06,-28.37 21.08,-36.89 z"
       id="path9"
       style="fill:#ffffff" />
    <path
       d="m 566.5,85.38 c 10.07,-0.13 20.14,-0.09 30.21,-0.03 0.23,11.62 0.03,23.24 0.11,34.86 12.65,0.03 25.3,-0.07 37.95,0.05 0.01,10.2 0.05,20.39 -0.03,30.58 -11.25,0.18 -22.49,0.02 -33.74,0.08 -1.44,-0.01 -2.82,0.31 -4.2,0.62 -0.05,13.36 0.16,26.73 -0.11,40.09 -10.05,0.05 -20.11,0.21 -30.16,-0.09 -0.31,-13.4 0.4,-26.88 -0.34,-40.24 -12.76,-0.92 -25.67,-0.06 -38.48,-0.44 -0.05,-10.1 -0.05,-20.21 0,-30.31 12.91,-0.4 25.84,-0.05 38.76,-0.18 0.05,-11.67 -0.01,-23.33 0.03,-34.99 z"
       id="path11"
       style="fill:#ffffff" />
    <path
       d="m 163.46,87.58 c 11.33,-0.24 22.67,-0.03 34,-0.09 3.75,14.7 6.35,29.68 9.7,44.48 4.11,19.81 8.39,39.58 12.5,59.38 -9.01,0.36 -18.04,0.02 -27.05,0.22 -1.45,-6.08 -2.89,-12.17 -4.42,-18.23 -11.08,-0.04 -22.16,-0.01 -33.24,-0.03 -1.2,0.07 -2.8,-0.1 -3.5,1.13 -3.15,5.41 -4.92,11.55 -8.29,16.82 -10.38,0.5 -20.83,0.25 -31.22,0.1 15.33,-32.24 31.65,-64.03 47.27,-96.13 1.38,-2.54 2.18,-5.61 4.25,-7.65 m -1.6,62.74 c 7.15,-0.01 14.3,0.08 21.45,0.2 -2.54,-10.83 -4.77,-21.73 -7.27,-32.56 -4.72,10.79 -9.42,21.59 -14.18,32.36 z"
       id="path13"
       style="fill:#ffffff" />
    <path
       d="m 395.62,87.62 c 11.25,-0.28 22.53,-0.15 33.8,-0.05 6.29,28.72 11.91,57.6 18,86.37 1.02,5.98 2.7,11.84 3.49,17.86 -9.15,0.05 -18.3,0.05 -27.45,0 -1.6,-6.14 -2.48,-12.45 -4.14,-18.59 -11.92,0.14 -23.88,-0.37 -35.76,0.25 -3.07,5.97 -5.67,12.18 -8.67,18.2 -10.45,-0.03 -20.9,0.21 -31.35,-0.13 15.59,-31.35 31.11,-62.74 46.8,-94.04 1.77,-3.28 3.01,-6.89 5.28,-9.87 m 12.45,29.95 c -4.73,11.02 -9.7,21.93 -14.41,32.95 7.22,0.04 14.43,-0.03 21.65,0.03 -2.6,-10.95 -4.66,-22.02 -7.24,-32.98 z"
       id="path15"
       style="fill:#ffffff" />
    <path
       d="m 477,87.49 c 9.65,0 19.3,-0.05 28.95,0.03 -0.35,7.15 -1.7,14.2 -2.59,21.28 -2.69,19.68 -5.49,39.35 -8.09,59.04 10.43,0.26 20.88,0.03 31.32,0.12 -1.01,7.91 -1.87,15.85 -3.2,23.71 -20.38,-0.06 -40.77,0.22 -61.14,-0.14 3.75,-30.25 8.61,-60.38 12.66,-90.6 0.79,-4.46 1.17,-8.99 2.09,-13.44 z"
       id="path17"
       style="fill:#ffffff" />
    <path
       d="m 244.38,93.14 c 0.4,-1.84 -0.11,-4.14 1.57,-5.45 9.8,-0.24 19.6,0 29.4,-0.1 11.58,19.37 21.97,39.46 33.71,58.72 3.17,-19.52 5.46,-39.18 8.69,-58.69 6.1,-0.13 12.19,0.24 18.29,0.13 3.4,0.07 6.87,-0.33 10.22,0.51 -4.49,32.57 -9.19,65.12 -13.77,97.68 -0.26,1.93 -0.59,3.86 -1.02,5.76 -9.25,-0.02 -18.5,-0.02 -27.75,0.01 -11.98,-21.39 -24,-42.75 -35.92,-64.16 -3.17,21.29 -5.86,42.66 -9.21,63.93 -8.92,0.04 -17.84,0.04 -26.75,0 -0.26,-0.36 -0.77,-1.08 -1.03,-1.45 2.58,-17 4.82,-34.07 7.16,-51.11 2.21,-15.25 4.24,-30.53 6.41,-45.78 z"
       id="path19"
       style="fill:#ffffff" />
  </g>
  <g
     transform="matrix(0.0540789,0,0,0.0540789,-0.16602222,0.57817)"
     id="#ce0d21ff">
    <path
       d="m 586.63,3.05 c 48.96,-0.03 97.91,0.08 146.87,-0.06 3.28,23.11 6.96,46.21 9.23,69.44 -22.57,3.44 -45.16,6.72 -67.71,10.26 -4.81,0.73 -9.69,1.06 -14.4,2.33 -18.55,3.3 -37.26,5.65 -55.85,8.68 -2.4,-11.88 -5.23,-23.69 -7.05,-35.67 -3.38,-18.39 -7.35,-36.67 -11.09,-54.98 m 56.97,13.58 c 1.09,6.61 2.42,13.18 3.45,19.79 -6.11,0.38 -12.22,0.82 -18.33,1.1 -1.1,-6.81 -2.77,-13.52 -3.67,-20.36 -4.61,0 -9.21,0.06 -13.8,0.28 3.43,18.19 7.2,36.32 10.53,54.53 4.39,-0.47 8.76,-1.08 13.16,-1.53 -1.11,-7.3 -2.97,-14.47 -3.91,-21.8 6.02,-0.53 12.06,-0.88 18.07,-1.57 1.29,7.09 2.58,14.18 3.8,21.28 4.35,-0.55 8.71,-1.06 13.07,-1.55 -2.67,-16.9 -5.94,-33.7 -8.71,-50.59 -4.56,0.18 -9.12,0.15 -13.66,0.42 m 29.74,-0.84 c 2.75,16.4 5.45,32.82 8.29,49.21 6.46,-0.9 12.96,-1.46 19.43,-2.32 11.23,-1.66 21.54,-11.98 20.62,-23.78 -0.44,-9.09 -7.31,-16.65 -15.26,-20.36 -10.27,-5.22 -22.07,-2.36 -33.08,-2.75 z"
       id="path22"
       style="fill:#ce0d21" />
    <path
       d="m 688.63,26.24 c 4.77,-0.33 9.93,0.14 13.84,3.2 5.47,4.2 7.38,13.24 2.57,18.63 -3.02,3.43 -7.78,4.31 -12.11,4.64 -1.37,-8.83 -2.69,-17.67 -4.3,-26.47 z"
       id="path24"
       style="fill:#ce0d21" />
  </g>
  <g
     transform="matrix(0.0540789,0,0,0.0540789,-0.16602222,0.57817)"
     id="#000000ff">
    <path
       d="m 3.07,57.99 c 198.22,0.02 396.44,-0.06 594.65,0.04 1.82,11.98 4.65,23.79 7.05,35.67 18.59,-3.03 37.3,-5.38 55.85,-8.68 0.13,46.99 0.01,93.99 0.06,140.98 -219.2,-0.02 -438.4,-0.02 -657.6,0 -0.01,-56.01 0,-112.01 -0.01,-168.01 m 45.87,37 c -12.02,8.52 -18.48,22.75 -21.08,36.89 -0.68,6.34 -0.68,12.72 0.02,19.06 1.62,9.88 5.43,19.57 12.2,27.07 11.08,12.42 28.5,17.86 44.82,16.51 6.58,-0.67 13.59,-1.38 19.32,-4.9 1.93,-8.78 3.43,-17.71 4.62,-26.62 -5.25,1.75 -10.34,4.13 -15.86,4.98 -10.48,1.99 -22.7,-0.78 -29.63,-9.35 -7.53,-9.1 -7.52,-22.57 -2.63,-32.9 4.35,-8.91 13.78,-14.49 23.45,-15.59 11.45,-1.44 22.82,2.71 32.17,9.11 2.18,-8.31 3.25,-16.88 5.09,-25.28 C 115.29,89.06 107.66,86.6 100.09,84.91 82.66,81.36 63.27,83.83 48.94,94.99 M 566.5,85.38 c -0.04,11.66 0.02,23.32 -0.03,34.99 -12.92,0.13 -25.85,-0.22 -38.76,0.18 -0.05,10.1 -0.05,20.21 0,30.31 12.81,0.38 25.72,-0.48 38.48,0.44 0.74,13.36 0.03,26.84 0.34,40.24 10.05,0.3 20.11,0.14 30.16,0.09 0.27,-13.36 0.06,-26.73 0.11,-40.09 1.38,-0.31 2.76,-0.63 4.2,-0.62 11.25,-0.06 22.49,0.1 33.74,-0.08 0.08,-10.19 0.04,-20.38 0.03,-30.58 -12.65,-0.12 -25.3,-0.02 -37.95,-0.05 -0.08,-11.62 0.12,-23.24 -0.11,-34.86 -10.07,-0.06 -20.14,-0.1 -30.21,0.03 m -403.04,2.2 c -2.07,2.04 -2.87,5.11 -4.25,7.65 -15.62,32.1 -31.94,63.89 -47.27,96.13 10.39,0.15 20.84,0.4 31.22,-0.1 3.37,-5.27 5.14,-11.41 8.29,-16.82 0.7,-1.23 2.3,-1.06 3.5,-1.13 11.08,0.02 22.16,-0.01 33.24,0.03 1.53,6.06 2.97,12.15 4.42,18.23 9.01,-0.2 18.04,0.14 27.05,-0.22 -4.11,-19.8 -8.39,-39.57 -12.5,-59.38 -3.35,-14.8 -5.95,-29.78 -9.7,-44.48 -11.33,0.06 -22.67,-0.15 -34,0.09 m 232.16,0.04 c -2.27,2.98 -3.51,6.59 -5.28,9.87 -15.69,31.3 -31.21,62.69 -46.8,94.04 10.45,0.34 20.9,0.1 31.35,0.13 3,-6.02 5.6,-12.23 8.67,-18.2 11.88,-0.62 23.84,-0.11 35.76,-0.25 1.66,6.14 2.54,12.45 4.14,18.59 9.15,0.05 18.3,0.05 27.45,0 -0.79,-6.02 -2.47,-11.88 -3.49,-17.86 -6.09,-28.77 -11.71,-57.65 -18,-86.37 -11.27,-0.1 -22.55,-0.23 -33.8,0.05 M 477,87.49 c -0.92,4.45 -1.3,8.98 -2.09,13.44 -4.05,30.22 -8.91,60.35 -12.66,90.6 20.37,0.36 40.76,0.08 61.14,0.14 1.33,-7.86 2.19,-15.8 3.2,-23.71 -10.44,-0.09 -20.89,0.14 -31.32,-0.12 2.6,-19.69 5.4,-39.36 8.09,-59.04 0.89,-7.08 2.24,-14.13 2.59,-21.28 -9.65,-0.08 -19.3,-0.03 -28.95,-0.03 m -232.62,5.65 c -2.17,15.25 -4.2,30.53 -6.41,45.78 -2.34,17.04 -4.58,34.11 -7.16,51.11 0.26,0.37 0.77,1.09 1.03,1.45 8.91,0.04 17.83,0.04 26.75,0 3.35,-21.27 6.04,-42.64 9.21,-63.93 11.92,21.41 23.94,42.77 35.92,64.16 9.25,-0.03 18.5,-0.03 27.75,-0.01 0.43,-1.9 0.76,-3.83 1.02,-5.76 4.58,-32.56 9.28,-65.11 13.77,-97.68 -3.35,-0.84 -6.82,-0.44 -10.22,-0.51 -6.1,0.11 -12.19,-0.26 -18.29,-0.13 -3.23,19.51 -5.52,39.17 -8.69,58.69 -11.74,-19.26 -22.13,-39.35 -33.71,-58.72 -9.8,0.1 -19.6,-0.14 -29.4,0.1 -1.68,1.31 -1.17,3.61 -1.57,5.45 z"
       id="path27"
       style="fill:#000000" />
    <path
       d="m 161.86,150.32 c 4.76,-10.77 9.46,-21.57 14.18,-32.36 2.5,10.83 4.73,21.73 7.27,32.56 -7.15,-0.12 -14.3,-0.21 -21.45,-0.2 z"
       id="path29"
       style="fill:#000000" />
    <path
       d="m 408.07,117.57 c 2.58,10.96 4.64,22.03 7.24,32.98 -7.22,-0.06 -14.43,0.01 -21.65,-0.03 4.71,-11.02 9.68,-21.93 14.41,-32.95 z"
       id="path31"
       style="fill:#000000" />
  </g>
</svg>

<?xml version="1.0" encoding="UTF-8" ?>
<!DOCTYPE svg PUBLIC "-//W3C//DTD SVG 1.1//EN" "http://www.w3.org/Graphics/SVG/1.1/DTD/svg11.dtd">
<svg width="747pt" height="229pt" viewBox="0 0 747 229" version="1.1" xmlns="http://www.w3.org/2000/svg">
<g id="#ffffffff">
<path fill="#ffffff" opacity="1.00" d=" M 643.60 16.63 C 648.14 16.36 652.70 16.39 657.26 16.21 C 660.03 33.10 663.30 49.90 665.97 66.80 C 661.61 67.29 657.25 67.80 652.90 68.35 C 651.68 61.25 650.39 54.16 649.10 47.07 C 643.09 47.76 637.05 48.11 631.03 48.64 C 631.97 55.97 633.83 63.14 634.94 70.44 C 630.54 70.89 626.17 71.50 621.78 71.97 C 618.45 53.76 614.68 35.63 611.25 17.44 C 615.84 17.22 620.44 17.16 625.05 17.16 C 625.95 24.00 627.62 30.71 628.72 37.52 C 634.83 37.24 640.94 36.80 647.05 36.42 C 646.02 29.81 644.69 23.24 643.60 16.63 Z" />
<path fill="#ffffff" opacity="1.00" d=" M 673.34 15.79 C 684.35 16.18 696.15 13.32 706.42 18.54 C 714.37 22.25 721.24 29.81 721.68 38.90 C 722.60 50.70 712.29 61.02 701.06 62.68 C 694.59 63.54 688.09 64.10 681.63 65.00 C 678.79 48.61 676.09 32.19 673.34 15.79 M 688.63 26.24 C 690.24 35.04 691.56 43.88 692.93 52.71 C 697.26 52.38 702.02 51.50 705.04 48.07 C 709.85 42.68 707.94 33.64 702.47 29.44 C 698.56 26.38 693.40 25.91 688.63 26.24 Z" />
<path fill="#ffffff" opacity="1.00" d=" M 48.94 94.99 C 63.27 83.83 82.66 81.36 100.09 84.91 C 107.66 86.60 115.29 89.06 121.43 93.97 C 119.59 102.37 118.52 110.94 116.34 119.25 C 106.99 112.85 95.62 108.70 84.17 110.14 C 74.50 111.24 65.07 116.82 60.72 125.73 C 55.83 136.06 55.82 149.53 63.35 158.63 C 70.28 167.20 82.50 169.97 92.98 167.98 C 98.50 167.13 103.59 164.75 108.84 163.00 C 107.65 171.91 106.15 180.84 104.22 189.62 C 98.49 193.14 91.48 193.85 84.90 194.52 C 68.58 195.87 51.16 190.43 40.08 178.01 C 33.31 170.51 29.50 160.82 27.88 150.94 C 27.18 144.60 27.18 138.22 27.86 131.88 C 30.46 117.74 36.92 103.51 48.94 94.99 Z" />
<path fill="#ffffff" opacity="1.00" d=" M 566.50 85.38 C 576.57 85.25 586.64 85.29 596.71 85.35 C 596.94 96.97 596.74 108.59 596.82 120.21 C 609.47 120.24 622.12 120.14 634.77 120.26 C 634.78 130.46 634.82 140.65 634.74 150.84 C 623.49 151.02 612.25 150.86 601.00 150.92 C 599.56 150.91 598.18 151.23 596.80 151.54 C 596.75 164.90 596.96 178.27 596.69 191.63 C 586.64 191.68 576.58 191.84 566.53 191.54 C 566.22 178.14 566.93 164.66 566.19 151.30 C 553.43 150.38 540.52 151.24 527.71 150.86 C 527.66 140.76 527.66 130.65 527.71 120.55 C 540.62 120.15 553.55 120.50 566.47 120.37 C 566.52 108.70 566.46 97.04 566.50 85.38 Z" />
<path fill="#ffffff" opacity="1.00" d=" M 163.46 87.58 C 174.79 87.34 186.13 87.55 197.46 87.49 C 201.21 102.19 203.81 117.17 207.16 131.97 C 211.27 151.78 215.55 171.55 219.66 191.35 C 210.65 191.71 201.62 191.37 192.61 191.57 C 191.16 185.49 189.72 179.40 188.19 173.34 C 177.11 173.30 166.03 173.33 154.95 173.31 C 153.75 173.38 152.15 173.21 151.45 174.44 C 148.30 179.85 146.53 185.99 143.16 191.26 C 132.78 191.76 122.33 191.51 111.94 191.36 C 127.27 159.12 143.59 127.33 159.21 95.23 C 160.59 92.69 161.39 89.62 163.46 87.58 M 161.86 150.32 C 169.01 150.31 176.16 150.40 183.31 150.52 C 180.77 139.69 178.54 128.79 176.04 117.96 C 171.32 128.75 166.62 139.55 161.86 150.32 Z" />
<path fill="#ffffff" opacity="1.00" d=" M 395.62 87.62 C 406.87 87.34 418.15 87.47 429.42 87.57 C 435.71 116.29 441.33 145.17 447.42 173.94 C 448.44 179.92 450.12 185.78 450.91 191.80 C 441.76 191.85 432.61 191.85 423.46 191.80 C 421.86 185.66 420.98 179.35 419.32 173.21 C 407.40 173.35 395.44 172.84 383.56 173.46 C 380.49 179.43 377.89 185.64 374.89 191.66 C 364.44 191.63 353.99 191.87 343.54 191.53 C 359.13 160.18 374.65 128.79 390.34 97.49 C 392.11 94.21 393.35 90.60 395.62 87.62 M 408.07 117.57 C 403.34 128.59 398.37 139.50 393.66 150.52 C 400.88 150.56 408.09 150.49 415.31 150.55 C 412.71 139.60 410.65 128.53 408.07 117.57 Z" />
<path fill="#ffffff" opacity="1.00" d=" M 477.00 87.49 C 486.65 87.49 496.30 87.44 505.95 87.52 C 505.60 94.67 504.25 101.72 503.36 108.80 C 500.67 128.48 497.87 148.15 495.27 167.84 C 505.70 168.10 516.15 167.87 526.59 167.96 C 525.58 175.87 524.72 183.81 523.39 191.67 C 503.01 191.61 482.62 191.89 462.25 191.53 C 466.00 161.28 470.86 131.15 474.91 100.93 C 475.70 96.47 476.08 91.94 477.00 87.49 Z" />
<path fill="#ffffff" opacity="1.00" d=" M 244.38 93.14 C 244.78 91.30 244.27 89.00 245.95 87.69 C 255.75 87.45 265.55 87.69 275.35 87.59 C 286.93 106.96 297.32 127.05 309.06 146.31 C 312.23 126.79 314.52 107.13 317.75 87.62 C 323.85 87.49 329.94 87.86 336.04 87.75 C 339.44 87.82 342.91 87.42 346.26 88.26 C 341.77 120.83 337.07 153.38 332.49 185.94 C 332.23 187.87 331.90 189.80 331.47 191.70 C 322.22 191.68 312.97 191.68 303.72 191.71 C 291.74 170.32 279.72 148.96 267.80 127.55 C 264.63 148.84 261.94 170.21 258.59 191.48 C 249.67 191.52 240.75 191.52 231.84 191.48 C 231.58 191.12 231.07 190.40 230.81 190.03 C 233.39 173.03 235.63 155.96 237.97 138.92 C 240.18 123.67 242.21 108.39 244.38 93.14 Z" />
</g>
<g id="#ce0d21ff">
<path fill="#ce0d21" opacity="1.00" d=" M 586.63 3.05 C 635.59 3.02 684.54 3.13 733.50 2.99 C 736.78 26.10 740.46 49.20 742.73 72.43 C 720.16 75.87 697.57 79.15 675.02 82.69 C 670.21 83.42 665.33 83.75 660.62 85.02 C 642.07 88.32 623.36 90.67 604.77 93.70 C 602.37 81.82 599.54 70.01 597.72 58.03 C 594.34 39.64 590.37 21.36 586.63 3.05 M 643.60 16.63 C 644.69 23.24 646.02 29.81 647.05 36.42 C 640.94 36.80 634.83 37.24 628.72 37.52 C 627.62 30.71 625.95 24.00 625.05 17.16 C 620.44 17.16 615.84 17.22 611.25 17.44 C 614.68 35.63 618.45 53.76 621.78 71.97 C 626.17 71.50 630.54 70.89 634.94 70.44 C 633.83 63.14 631.97 55.97 631.03 48.64 C 637.05 48.11 643.09 47.76 649.10 47.07 C 650.39 54.16 651.68 61.25 652.90 68.35 C 657.25 67.80 661.61 67.29 665.97 66.80 C 663.30 49.90 660.03 33.10 657.26 16.21 C 652.70 16.39 648.14 16.36 643.60 16.63 M 673.34 15.79 C 676.09 32.19 678.79 48.61 681.63 65.00 C 688.09 64.10 694.59 63.54 701.06 62.68 C 712.29 61.02 722.60 50.70 721.68 38.90 C 721.24 29.81 714.37 22.25 706.42 18.54 C 696.15 13.32 684.35 16.18 673.34 15.79 Z" />
<path fill="#ce0d21" opacity="1.00" d=" M 688.63 26.24 C 693.40 25.91 698.56 26.38 702.47 29.44 C 707.94 33.64 709.85 42.68 705.04 48.07 C 702.02 51.50 697.26 52.38 692.93 52.71 C 691.56 43.88 690.24 35.04 688.63 26.24 Z" />
</g>
<g id="#000000ff">
<path fill="#000000" opacity="1.00" d=" M 3.07 57.99 C 201.29 58.01 399.51 57.93 597.72 58.03 C 599.54 70.01 602.37 81.82 604.77 93.70 C 623.36 90.67 642.07 88.32 660.62 85.02 C 660.75 132.01 660.63 179.01 660.68 226.00 C 441.48 225.98 222.28 225.98 3.08 226.00 C 3.07 169.99 3.08 113.99 3.07 57.99 M 48.94 94.99 C 36.92 103.51 30.46 117.74 27.86 131.88 C 27.18 138.22 27.18 144.60 27.88 150.94 C 29.50 160.82 33.31 170.51 40.08 178.01 C 51.16 190.43 68.58 195.87 84.90 194.52 C 91.48 193.85 98.49 193.14 104.22 189.62 C 106.15 180.84 107.65 171.91 108.84 163.00 C 103.59 164.75 98.50 167.13 92.98 167.98 C 82.50 169.97 70.28 167.20 63.35 158.63 C 55.82 149.53 55.83 136.06 60.72 125.73 C 65.07 116.82 74.50 111.24 84.17 110.14 C 95.62 108.70 106.99 112.85 116.34 119.25 C 118.52 110.94 119.59 102.37 121.43 93.97 C 115.29 89.06 107.66 86.60 100.09 84.91 C 82.66 81.36 63.27 83.83 48.94 94.99 M 566.50 85.38 C 566.46 97.04 566.52 108.70 566.47 120.37 C 553.55 120.50 540.62 120.15 527.71 120.55 C 527.66 130.65 527.66 140.76 527.71 150.86 C 540.52 151.24 553.43 150.38 566.19 151.30 C 566.93 164.66 566.22 178.14 566.53 191.54 C 576.58 191.84 586.64 191.68 596.69 191.63 C 596.96 178.27 596.75 164.90 596.80 151.54 C 598.18 151.23 599.56 150.91 601.00 150.92 C 612.25 150.86 623.49 151.02 634.74 150.84 C 634.82 140.65 634.78 130.46 634.77 120.26 C 622.12 120.14 609.47 120.24 596.82 120.21 C 596.74 108.59 596.94 96.97 596.71 85.35 C 586.64 85.29 576.57 85.25 566.50 85.38 M 163.46 87.58 C 161.39 89.62 160.59 92.69 159.21 95.23 C 143.59 127.33 127.27 159.12 111.94 191.36 C 122.33 191.51 132.78 191.76 143.16 191.26 C 146.53 185.99 148.30 179.85 151.45 174.44 C 152.15 173.21 153.75 173.38 154.95 173.31 C 166.03 173.33 177.11 173.30 188.19 173.34 C 189.72 179.40 191.16 185.49 192.61 191.57 C 201.62 191.37 210.65 191.71 219.66 191.35 C 215.55 171.55 211.27 151.78 207.16 131.97 C 203.81 117.17 201.21 102.19 197.46 87.49 C 186.13 87.55 174.79 87.34 163.46 87.58 M 395.62 87.62 C 393.35 90.60 392.11 94.21 390.34 97.49 C 374.65 128.79 359.13 160.18 343.54 191.53 C 353.99 191.87 364.44 191.63 374.89 191.66 C 377.89 185.64 380.49 179.43 383.56 173.46 C 395.44 172.84 407.40 173.35 419.32 173.21 C 420.98 179.35 421.86 185.66 423.46 191.80 C 432.61 191.85 441.76 191.85 450.91 191.80 C 450.12 185.78 448.44 179.92 447.42 173.94 C 441.33 145.17 435.71 116.29 429.42 87.57 C 418.15 87.47 406.87 87.34 395.62 87.62 M 477.00 87.49 C 476.08 91.94 475.70 96.47 474.91 100.93 C 470.86 131.15 466.00 161.28 462.25 191.53 C 482.62 191.89 503.01 191.61 523.39 191.67 C 524.72 183.81 525.58 175.87 526.59 167.96 C 516.15 167.87 505.70 168.10 495.27 167.84 C 497.87 148.15 500.67 128.48 503.36 108.80 C 504.25 101.72 505.60 94.67 505.95 87.52 C 496.30 87.44 486.65 87.49 477.00 87.49 M 244.38 93.14 C 242.21 108.39 240.18 123.67 237.97 138.92 C 235.63 155.96 233.39 173.03 230.81 190.03 C 231.07 190.40 231.58 191.12 231.84 191.48 C 240.75 191.52 249.67 191.52 258.59 191.48 C 261.94 170.21 264.63 148.84 267.80 127.55 C 279.72 148.96 291.74 170.32 303.72 191.71 C 312.97 191.68 322.22 191.68 331.47 191.70 C 331.90 189.80 332.23 187.87 332.49 185.94 C 337.07 153.38 341.77 120.83 346.26 88.26 C 342.91 87.42 339.44 87.82 336.04 87.75 C 329.94 87.86 323.85 87.49 317.75 87.62 C 314.52 107.13 312.23 126.79 309.06 146.31 C 297.32 127.05 286.93 106.96 275.35 87.59 C 265.55 87.69 255.75 87.45 245.95 87.69 C 244.27 89.00 244.78 91.30 244.38 93.14 Z" />
<path fill="#000000" opacity="1.00" d=" M 161.86 150.32 C 166.62 139.55 171.32 128.75 176.04 117.96 C 178.54 128.79 180.77 139.69 183.31 150.52 C 176.16 150.40 169.01 150.31 161.86 150.32 Z" />
<path fill="#000000" opacity="1.00" d=" M 408.07 117.57 C 410.65 128.53 412.71 139.60 415.31 150.55 C 408.09 150.49 400.88 150.56 393.66 150.52 C 398.37 139.50 403.34 128.59 408.07 117.57 Z" />
</g>
</svg>
